X: 22451
T: Lads Of Laois, The
R: reel
M: 4/4
K: Eminor
EB,~B,2 EGFE|DA,~A,2 DEFD|E2FD EFGA|B2ec dBAF|
[1 EB,~B,2 EGFE|DA,~A,2 DEFD|E2BE dEBE|DEFA BE~E2:|
[2 E2B,E GE B,E|D2A,D FD A,D|(3Bcd eB dBAF|DEFA BE~E2:|
eB~B2 egfe|defa gfed|(3Bcd ef ~g3e|fgaf gfed|
eB~B2 GBFB|EBBA (3Bcd ef|~g3e ~f3d|1 efed BABd:|2 efed BAFD:|

